images/Pattern.svg

<svg width="180" height="185" viewBox="0 0 180 185" fill="none" xmlns="http://www.w3.org/2000/svg">
<path d="M1.50575 8.822V7.464H3.80175V5.14H5.20175V7.464H7.49775V8.822H5.20175V11.23H3.80175V8.822H1.50575Z" fill="#FF6652"/>
<path d="M20.5058 8.822V7.464H22.8018V5.14H24.2018V7.464H26.4978V8.822H24.2018V11.23H22.8018V8.822H20.5058Z" fill="#FF6652"/>
<path d="M39.5058 8.822V7.464H41.8018V5.14H43.2018V7.464H45.4978V8.822H43.2018V11.23H41.8018V8.822H39.5058Z" fill="#FF6652"/>
<path d="M58.5058 8.822V7.464H60.8018V5.14H62.2018V7.464H64.4978V8.822H62.2018V11.23H60.8018V8.822H58.5058Z" fill="#FF6652"/>
<path d="M77.5058 8.822V7.464H79.8018V5.14H81.2018V7.464H83.4978V8.822H81.2018V11.23H79.8018V8.822H77.5058Z" fill="#FF6652"/>
<path d="M96.5058 8.822V7.464H98.8018V5.14H100.202V7.464H102.498V8.822H100.202V11.23H98.8018V8.822H96.5058Z" fill="#FF6652"/>
<path d="M115.506 8.822V7.464H117.802V5.14H119.202V7.464H121.498V8.822H119.202V11.23H117.802V8.822H115.506Z" fill="#FF6652"/>
<path d="M134.506 8.822V7.464H136.802V5.14H138.202V7.464H140.498V8.822H138.202V11.23H136.802V8.822H134.506Z" fill="#FF6652"/>
<path d="M153.506 8.822V7.464H155.802V5.14H157.202V7.464H159.498V8.822H157.202V11.23H155.802V8.822H153.506Z" fill="#FF6652"/>
<path d="M172.506 8.822V7.464H174.802V5.14H176.202V7.464H178.498V8.822H176.202V11.23H174.802V8.822H172.506Z" fill="#FF6652"/>
<path d="M1.50575 27.822V26.464H3.80175V24.14H5.20175V26.464H7.49775V27.822H5.20175V30.23H3.80175V27.822H1.50575Z" fill="#FF6652"/>
<path d="M20.5058 27.822V26.464H22.8018V24.14H24.2018V26.464H26.4978V27.822H24.2018V30.23H22.8018V27.822H20.5058Z" fill="#FF6652"/>
<path d="M39.5058 27.822V26.464H41.8018V24.14H43.2018V26.464H45.4978V27.822H43.2018V30.23H41.8018V27.822H39.5058Z" fill="#FF6652"/>
<path d="M58.5058 27.822V26.464H60.8018V24.14H62.2018V26.464H64.4978V27.822H62.2018V30.23H60.8018V27.822H58.5058Z" fill="#FF6652"/>
<path d="M77.5058 27.822V26.464H79.8018V24.14H81.2018V26.464H83.4978V27.822H81.2018V30.23H79.8018V27.822H77.5058Z" fill="#FF6652"/>
<path d="M96.5058 27.822V26.464H98.8018V24.14H100.202V26.464H102.498V27.822H100.202V30.23H98.8018V27.822H96.5058Z" fill="#FF6652"/>
<path d="M115.506 27.822V26.464H117.802V24.14H119.202V26.464H121.498V27.822H119.202V30.23H117.802V27.822H115.506Z" fill="#FF6652"/>
<path d="M134.506 27.822V26.464H136.802V24.14H138.202V26.464H140.498V27.822H138.202V30.23H136.802V27.822H134.506Z" fill="#FF6652"/>
<path d="M153.506 27.822V26.464H155.802V24.14H157.202V26.464H159.498V27.822H157.202V30.23H155.802V27.822H153.506Z" fill="#FF6652"/>
<path d="M172.506 27.822V26.464H174.802V24.14H176.202V26.464H178.498V27.822H176.202V30.23H174.802V27.822H172.506Z" fill="#FF6652"/>
<path d="M1.50575 46.822V45.464H3.80175V43.14H5.20175V45.464H7.49775V46.822H5.20175V49.23H3.80175V46.822H1.50575Z" fill="#FF6652"/>
<path d="M20.5058 46.822V45.464H22.8018V43.14H24.2018V45.464H26.4978V46.822H24.2018V49.23H22.8018V46.822H20.5058Z" fill="#FF6652"/>
<path d="M39.5058 46.822V45.464H41.8018V43.14H43.2018V45.464H45.4978V46.822H43.2018V49.23H41.8018V46.822H39.5058Z" fill="#FF6652"/>
<path d="M58.5058 46.822V45.464H60.8018V43.14H62.2018V45.464H64.4978V46.822H62.2018V49.23H60.8018V46.822H58.5058Z" fill="#FF6652"/>
<path d="M77.5058 46.822V45.464H79.8018V43.14H81.2018V45.464H83.4978V46.822H81.2018V49.23H79.8018V46.822H77.5058Z" fill="#FF6652"/>
<path d="M96.5058 46.822V45.464H98.8018V43.14H100.202V45.464H102.498V46.822H100.202V49.23H98.8018V46.822H96.5058Z" fill="#FF6652"/>
<path d="M115.506 46.822V45.464H117.802V43.14H119.202V45.464H121.498V46.822H119.202V49.23H117.802V46.822H115.506Z" fill="#FF6652"/>
<path d="M134.506 46.822V45.464H136.802V43.14H138.202V45.464H140.498V46.822H138.202V49.23H136.802V46.822H134.506Z" fill="#FF6652"/>
<path d="M153.506 46.822V45.464H155.802V43.14H157.202V45.464H159.498V46.822H157.202V49.23H155.802V46.822H153.506Z" fill="#FF6652"/>
<path d="M172.506 46.822V45.464H174.802V43.14H176.202V45.464H178.498V46.822H176.202V49.23H174.802V46.822H172.506Z" fill="#FF6652"/>
<path d="M1.50575 65.822V64.464H3.80175V62.14H5.20175V64.464H7.49775V65.822H5.20175V68.23H3.80175V65.822H1.50575Z" fill="#FF6652"/>
<path d="M20.5058 65.822V64.464H22.8018V62.14H24.2018V64.464H26.4978V65.822H24.2018V68.23H22.8018V65.822H20.5058Z" fill="#FF6652"/>
<path d="M39.5058 65.822V64.464H41.8018V62.14H43.2018V64.464H45.4978V65.822H43.2018V68.23H41.8018V65.822H39.5058Z" fill="#FF6652"/>
<path d="M58.5058 65.822V64.464H60.8018V62.14H62.2018V64.464H64.4978V65.822H62.2018V68.23H60.8018V65.822H58.5058Z" fill="#FF6652"/>
<path d="M77.5058 65.822V64.464H79.8018V62.14H81.2018V64.464H83.4978V65.822H81.2018V68.23H79.8018V65.822H77.5058Z" fill="#FF6652"/>
<path d="M96.5058 65.822V64.464H98.8018V62.14H100.202V64.464H102.498V65.822H100.202V68.23H98.8018V65.822H96.5058Z" fill="#FF6652"/>
<path d="M115.506 65.822V64.464H117.802V62.14H119.202V64.464H121.498V65.822H119.202V68.23H117.802V65.822H115.506Z" fill="#FF6652"/>
<path d="M134.506 65.822V64.464H136.802V62.14H138.202V64.464H140.498V65.822H138.202V68.23H136.802V65.822H134.506Z" fill="#FF6652"/>
<path d="M153.506 65.822V64.464H155.802V62.14H157.202V64.464H159.498V65.822H157.202V68.23H155.802V65.822H153.506Z" fill="#FF6652"/>
<path d="M172.506 65.822V64.464H174.802V62.14H176.202V64.464H178.498V65.822H176.202V68.23H174.802V65.822H172.506Z" fill="#FF6652"/>
<path d="M1.50575 84.822V83.464H3.80175V81.14H5.20175V83.464H7.49775V84.822H5.20175V87.23H3.80175V84.822H1.50575Z" fill="#FF6652"/>
<path d="M20.5058 84.822V83.464H22.8018V81.14H24.2018V83.464H26.4978V84.822H24.2018V87.23H22.8018V84.822H20.5058Z" fill="#FF6652"/>
<path d="M39.5058 84.822V83.464H41.8018V81.14H43.2018V83.464H45.4978V84.822H43.2018V87.23H41.8018V84.822H39.5058Z" fill="#FF6652"/>
<path d="M58.5058 84.822V83.464H60.8018V81.14H62.2018V83.464H64.4978V84.822H62.2018V87.23H60.8018V84.822H58.5058Z" fill="#FF6652"/>
<path d="M77.5058 84.822V83.464H79.8018V81.14H81.2018V83.464H83.4978V84.822H81.2018V87.23H79.8018V84.822H77.5058Z" fill="#FF6652"/>
<path d="M96.5058 84.822V83.464H98.8018V81.14H100.202V83.464H102.498V84.822H100.202V87.23H98.8018V84.822H96.5058Z" fill="#FF6652"/>
<path d="M115.506 84.822V83.464H117.802V81.14H119.202V83.464H121.498V84.822H119.202V87.23H117.802V84.822H115.506Z" fill="#FF6652"/>
<path d="M134.506 84.822V83.464H136.802V81.14H138.202V83.464H140.498V84.822H138.202V87.23H136.802V84.822H134.506Z" fill="#FF6652"/>
<path d="M153.506 84.822V83.464H155.802V81.14H157.202V83.464H159.498V84.822H157.202V87.23H155.802V84.822H153.506Z" fill="#FF6652"/>
<path d="M172.506 84.822V83.464H174.802V81.14H176.202V83.464H178.498V84.822H176.202V87.23H174.802V84.822H172.506Z" fill="#FF6652"/>
<path d="M1.50575 103.822V102.464H3.80175V100.14H5.20175V102.464H7.49775V103.822H5.20175V106.23H3.80175V103.822H1.50575Z" fill="#FF6652"/>
<path d="M20.5058 103.822V102.464H22.8018V100.14H24.2018V102.464H26.4978V103.822H24.2018V106.23H22.8018V103.822H20.5058Z" fill="#FF6652"/>
<path d="M39.5058 103.822V102.464H41.8018V100.14H43.2018V102.464H45.4978V103.822H43.2018V106.23H41.8018V103.822H39.5058Z" fill="#FF6652"/>
<path d="M58.5058 103.822V102.464H60.8018V100.14H62.2018V102.464H64.4978V103.822H62.2018V106.23H60.8018V103.822H58.5058Z" fill="#FF6652"/>
<path d="M77.5058 103.822V102.464H79.8018V100.14H81.2018V102.464H83.4978V103.822H81.2018V106.23H79.8018V103.822H77.5058Z" fill="#FF6652"/>
<path d="M96.5058 103.822V102.464H98.8018V100.14H100.202V102.464H102.498V103.822H100.202V106.23H98.8018V103.822H96.5058Z" fill="#FF6652"/>
<path d="M115.506 103.822V102.464H117.802V100.14H119.202V102.464H121.498V103.822H119.202V106.23H117.802V103.822H115.506Z" fill="#FF6652"/>
<path d="M134.506 103.822V102.464H136.802V100.14H138.202V102.464H140.498V103.822H138.202V106.23H136.802V103.822H134.506Z" fill="#FF6652"/>
<path d="M153.506 103.822V102.464H155.802V100.14H157.202V102.464H159.498V103.822H157.202V106.23H155.802V103.822H153.506Z" fill="#FF6652"/>
<path d="M172.506 103.822V102.464H174.802V100.14H176.202V102.464H178.498V103.822H176.202V106.23H174.802V103.822H172.506Z" fill="#FF6652"/>
<path d="M1.50575 122.822V121.464H3.80175V119.14H5.20175V121.464H7.49775V122.822H5.20175V125.23H3.80175V122.822H1.50575Z" fill="#FF6652"/>
<path d="M20.5058 122.822V121.464H22.8018V119.14H24.2018V121.464H26.4978V122.822H24.2018V125.23H22.8018V122.822H20.5058Z" fill="#FF6652"/>
<path d="M39.5058 122.822V121.464H41.8018V119.14H43.2018V121.464H45.4978V122.822H43.2018V125.23H41.8018V122.822H39.5058Z" fill="#FF6652"/>
<path d="M58.5058 122.822V121.464H60.8018V119.14H62.2018V121.464H64.4978V122.822H62.2018V125.23H60.8018V122.822H58.5058Z" fill="#FF6652"/>
<path d="M77.5058 122.822V121.464H79.8018V119.14H81.2018V121.464H83.4978V122.822H81.2018V125.23H79.8018V122.822H77.5058Z" fill="#FF6652"/>
<path d="M96.5058 122.822V121.464H98.8018V119.14H100.202V121.464H102.498V122.822H100.202V125.23H98.8018V122.822H96.5058Z" fill="#FF6652"/>
<path d="M115.506 122.822V121.464H117.802V119.14H119.202V121.464H121.498V122.822H119.202V125.23H117.802V122.822H115.506Z" fill="#FF6652"/>
<path d="M134.506 122.822V121.464H136.802V119.14H138.202V121.464H140.498V122.822H138.202V125.23H136.802V122.822H134.506Z" fill="#FF6652"/>
<path d="M153.506 122.822V121.464H155.802V119.14H157.202V121.464H159.498V122.822H157.202V125.23H155.802V122.822H153.506Z" fill="#FF6652"/>
<path d="M172.506 122.822V121.464H174.802V119.14H176.202V121.464H178.498V122.822H176.202V125.23H174.802V122.822H172.506Z" fill="#FF6652"/>
<path d="M1.50575 141.822V140.464H3.80175V138.14H5.20175V140.464H7.49775V141.822H5.20175V144.23H3.80175V141.822H1.50575Z" fill="#FF6652"/>
<path d="M20.5058 141.822V140.464H22.8018V138.14H24.2018V140.464H26.4978V141.822H24.2018V144.23H22.8018V141.822H20.5058Z" fill="#FF6652"/>
<path d="M39.5058 141.822V140.464H41.8018V138.14H43.2018V140.464H45.4978V141.822H43.2018V144.23H41.8018V141.822H39.5058Z" fill="#FF6652"/>
<path d="M58.5058 141.822V140.464H60.8018V138.14H62.2018V140.464H64.4978V141.822H62.2018V144.23H60.8018V141.822H58.5058Z" fill="#FF6652"/>
<path d="M77.5058 141.822V140.464H79.8018V138.14H81.2018V140.464H83.4978V141.822H81.2018V144.23H79.8018V141.822H77.5058Z" fill="#FF6652"/>
<path d="M96.5058 141.822V140.464H98.8018V138.14H100.202V140.464H102.498V141.822H100.202V144.23H98.8018V141.822H96.5058Z" fill="#FF6652"/>
<path d="M115.506 141.822V140.464H117.802V138.14H119.202V140.464H121.498V141.822H119.202V144.23H117.802V141.822H115.506Z" fill="#FF6652"/>
<path d="M134.506 141.822V140.464H136.802V138.14H138.202V140.464H140.498V141.822H138.202V144.23H136.802V141.822H134.506Z" fill="#FF6652"/>
<path d="M153.506 141.822V140.464H155.802V138.14H157.202V140.464H159.498V141.822H157.202V144.23H155.802V141.822H153.506Z" fill="#FF6652"/>
<path d="M172.506 141.822V140.464H174.802V138.14H176.202V140.464H178.498V141.822H176.202V144.23H174.802V141.822H172.506Z" fill="#FF6652"/>
<path d="M1.50575 160.822V159.464H3.80175V157.14H5.20175V159.464H7.49775V160.822H5.20175V163.23H3.80175V160.822H1.50575Z" fill="#FF6652"/>
<path d="M20.5058 160.822V159.464H22.8018V157.14H24.2018V159.464H26.4978V160.822H24.2018V163.23H22.8018V160.822H20.5058Z" fill="#FF6652"/>
<path d="M39.5058 160.822V159.464H41.8018V157.14H43.2018V159.464H45.4978V160.822H43.2018V163.23H41.8018V160.822H39.5058Z" fill="#FF6652"/>
<path d="M58.5058 160.822V159.464H60.8018V157.14H62.2018V159.464H64.4978V160.822H62.2018V163.23H60.8018V160.822H58.5058Z" fill="#FF6652"/>
<path d="M77.5058 160.822V159.464H79.8018V157.14H81.2018V159.464H83.4978V160.822H81.2018V163.23H79.8018V160.822H77.5058Z" fill="#FF6652"/>
<path d="M96.5058 160.822V159.464H98.8018V157.14H100.202V159.464H102.498V160.822H100.202V163.23H98.8018V160.822H96.5058Z" fill="#FF6652"/>
<path d="M115.506 160.822V159.464H117.802V157.14H119.202V159.464H121.498V160.822H119.202V163.23H117.802V160.822H115.506Z" fill="#FF6652"/>
<path d="M134.506 160.822V159.464H136.802V157.14H138.202V159.464H140.498V160.822H138.202V163.23H136.802V160.822H134.506Z" fill="#FF6652"/>
<path d="M153.506 160.822V159.464H155.802V157.14H157.202V159.464H159.498V160.822H157.202V163.23H155.802V160.822H153.506Z" fill="#FF6652"/>
<path d="M172.506 160.822V159.464H174.802V157.14H176.202V159.464H178.498V160.822H176.202V163.23H174.802V160.822H172.506Z" fill="#FF6652"/>
<path d="M1.50575 179.822V178.464H3.80175V176.14H5.20175V178.464H7.49775V179.822H5.20175V182.23H3.80175V179.822H1.50575Z" fill="#FF6652"/>
<path d="M20.5058 179.822V178.464H22.8018V176.14H24.2018V178.464H26.4978V179.822H24.2018V182.23H22.8018V179.822H20.5058Z" fill="#FF6652"/>
<path d="M39.5058 179.822V178.464H41.8018V176.14H43.2018V178.464H45.4978V179.822H43.2018V182.23H41.8018V179.822H39.5058Z" fill="#FF6652"/>
<path d="M58.5058 179.822V178.464H60.8018V176.14H62.2018V178.464H64.4978V179.822H62.2018V182.23H60.8018V179.822H58.5058Z" fill="#FF6652"/>
<path d="M77.5058 179.822V178.464H79.8018V176.14H81.2018V178.464H83.4978V179.822H81.2018V182.23H79.8018V179.822H77.5058Z" fill="#FF6652"/>
<path d="M96.5058 179.822V178.464H98.8018V176.14H100.202V178.464H102.498V179.822H100.202V182.23H98.8018V179.822H96.5058Z" fill="#FF6652"/>
<path d="M115.506 179.822V178.464H117.802V176.14H119.202V178.464H121.498V179.822H119.202V182.23H117.802V179.822H115.506Z" fill="#FF6652"/>
<path d="M134.506 179.822V178.464H136.802V176.14H138.202V178.464H140.498V179.822H138.202V182.23H136.802V179.822H134.506Z" fill="#FF6652"/>
<path d="M153.506 179.822V178.464H155.802V176.14H157.202V178.464H159.498V179.822H157.202V182.23H155.802V179.822H153.506Z" fill="#FF6652"/>
<path d="M172.506 179.822V178.464H174.802V176.14H176.202V178.464H178.498V179.822H176.202V182.23H174.802V179.822H172.506Z" fill="#FF6652"/>
</svg>

<svg xmlns="http://www.w3.org/2000/svg" width="180" height="185" fill="none"><path fill="#FF6652" d="M1.506 8.822V7.464h2.296V5.14h1.4v2.324h2.296v1.358H5.202v2.408h-1.4V8.822H1.506ZM20.506 8.822V7.464h2.296V5.14h1.4v2.324h2.296v1.358h-2.296v2.408h-1.4V8.822h-2.296ZM39.506 8.822V7.464h2.296V5.14h1.4v2.324h2.296v1.358h-2.296v2.408h-1.4V8.822h-2.296ZM58.506 8.822V7.464h2.296V5.14h1.4v2.324h2.296v1.358h-2.296v2.408h-1.4V8.822h-2.296ZM77.506 8.822V7.464h2.296V5.14h1.4v2.324h2.296v1.358h-2.296v2.408h-1.4V8.822h-2.296ZM96.506 8.822V7.464h2.296V5.14h1.4v2.324h2.296v1.358h-2.296v2.408h-1.4V8.822h-2.296ZM115.506 8.822V7.464h2.296V5.14h1.4v2.324h2.296v1.358h-2.296v2.408h-1.4V8.822h-2.296ZM134.506 8.822V7.464h2.296V5.14h1.4v2.324h2.296v1.358h-2.296v2.408h-1.4V8.822h-2.296ZM153.506 8.822V7.464h2.296V5.14h1.4v2.324h2.296v1.358h-2.296v2.408h-1.4V8.822h-2.296ZM172.506 8.822V7.464h2.296V5.14h1.4v2.324h2.296v1.358h-2.296v2.408h-1.4V8.822h-2.296ZM1.506 27.822v-1.358h2.296V24.14h1.4v2.324h2.296v1.358H5.202v2.408h-1.4v-2.408H1.506ZM20.506 27.822v-1.358h2.296V24.14h1.4v2.324h2.296v1.358h-2.296v2.408h-1.4v-2.408h-2.296ZM39.506 27.822v-1.358h2.296V24.14h1.4v2.324h2.296v1.358h-2.296v2.408h-1.4v-2.408h-2.296ZM58.506 27.822v-1.358h2.296V24.14h1.4v2.324h2.296v1.358h-2.296v2.408h-1.4v-2.408h-2.296ZM77.506 27.822v-1.358h2.296V24.14h1.4v2.324h2.296v1.358h-2.296v2.408h-1.4v-2.408h-2.296ZM96.506 27.822v-1.358h2.296V24.14h1.4v2.324h2.296v1.358h-2.296v2.408h-1.4v-2.408h-2.296ZM115.506 27.822v-1.358h2.296V24.14h1.4v2.324h2.296v1.358h-2.296v2.408h-1.4v-2.408h-2.296ZM134.506 27.822v-1.358h2.296V24.14h1.4v2.324h2.296v1.358h-2.296v2.408h-1.4v-2.408h-2.296ZM153.506 27.822v-1.358h2.296V24.14h1.4v2.324h2.296v1.358h-2.296v2.408h-1.4v-2.408h-2.296ZM172.506 27.822v-1.358h2.296V24.14h1.4v2.324h2.296v1.358h-2.296v2.408h-1.4v-2.408h-2.296ZM1.506 46.822v-1.358h2.296V43.14h1.4v2.324h2.296v1.358H5.202v2.408h-1.4v-2.408H1.506ZM20.506 46.822v-1.358h2.296V43.14h1.4v2.324h2.296v1.358h-2.296v2.408h-1.4v-2.408h-2.296ZM39.506 46.822v-1.358h2.296V43.14h1.4v2.324h2.296v1.358h-2.296v2.408h-1.4v-2.408h-2.296ZM58.506 46.822v-1.358h2.296V43.14h1.4v2.324h2.296v1.358h-2.296v2.408h-1.4v-2.408h-2.296ZM77.506 46.822v-1.358h2.296V43.14h1.4v2.324h2.296v1.358h-2.296v2.408h-1.4v-2.408h-2.296ZM96.506 46.822v-1.358h2.296V43.14h1.4v2.324h2.296v1.358h-2.296v2.408h-1.4v-2.408h-2.296ZM115.506 46.822v-1.358h2.296V43.14h1.4v2.324h2.296v1.358h-2.296v2.408h-1.4v-2.408h-2.296ZM134.506 46.822v-1.358h2.296V43.14h1.4v2.324h2.296v1.358h-2.296v2.408h-1.4v-2.408h-2.296ZM153.506 46.822v-1.358h2.296V43.14h1.4v2.324h2.296v1.358h-2.296v2.408h-1.4v-2.408h-2.296ZM172.506 46.822v-1.358h2.296V43.14h1.4v2.324h2.296v1.358h-2.296v2.408h-1.4v-2.408h-2.296ZM1.506 65.822v-1.358h2.296V62.14h1.4v2.324h2.296v1.358H5.202v2.408h-1.4v-2.408H1.506ZM20.506 65.822v-1.358h2.296V62.14h1.4v2.324h2.296v1.358h-2.296v2.408h-1.4v-2.408h-2.296ZM39.506 65.822v-1.358h2.296V62.14h1.4v2.324h2.296v1.358h-2.296v2.408h-1.4v-2.408h-2.296ZM58.506 65.822v-1.358h2.296V62.14h1.4v2.324h2.296v1.358h-2.296v2.408h-1.4v-2.408h-2.296ZM77.506 65.822v-1.358h2.296V62.14h1.4v2.324h2.296v1.358h-2.296v2.408h-1.4v-2.408h-2.296ZM96.506 65.822v-1.358h2.296V62.14h1.4v2.324h2.296v1.358h-2.296v2.408h-1.4v-2.408h-2.296ZM115.506 65.822v-1.358h2.296V62.14h1.4v2.324h2.296v1.358h-2.296v2.408h-1.4v-2.408h-2.296ZM134.506 65.822v-1.358h2.296V62.14h1.4v2.324h2.296v1.358h-2.296v2.408h-1.4v-2.408h-2.296ZM153.506 65.822v-1.358h2.296V62.14h1.4v2.324h2.296v1.358h-2.296v2.408h-1.4v-2.408h-2.296ZM172.506 65.822v-1.358h2.296V62.14h1.4v2.324h2.296v1.358h-2.296v2.408h-1.4v-2.408h-2.296ZM1.506 84.822v-1.358h2.296V81.14h1.4v2.324h2.296v1.358H5.202v2.408h-1.4v-2.408H1.506ZM20.506 84.822v-1.358h2.296V81.14h1.4v2.324h2.296v1.358h-2.296v2.408h-1.4v-2.408h-2.296ZM39.506 84.822v-1.358h2.296V81.14h1.4v2.324h2.296v1.358h-2.296v2.408h-1.4v-2.408h-2.296ZM58.506 84.822v-1.358h2.296V81.14h1.4v2.324h2.296v1.358h-2.296v2.408h-1.4v-2.408h-2.296ZM77.506 84.822v-1.358h2.296V81.14h1.4v2.324h2.296v1.358h-2.296v2.408h-1.4v-2.408h-2.296ZM96.506 84.822v-1.358h2.296V81.14h1.4v2.324h2.296v1.358h-2.296v2.408h-1.4v-2.408h-2.296ZM115.506 84.822v-1.358h2.296V81.14h1.4v2.324h2.296v1.358h-2.296v2.408h-1.4v-2.408h-2.296ZM134.506 84.822v-1.358h2.296V81.14h1.4v2.324h2.296v1.358h-2.296v2.408h-1.4v-2.408h-2.296ZM153.506 84.822v-1.358h2.296V81.14h1.4v2.324h2.296v1.358h-2.296v2.408h-1.4v-2.408h-2.296ZM172.506 84.822v-1.358h2.296V81.14h1.4v2.324h2.296v1.358h-2.296v2.408h-1.4v-2.408h-2.296ZM1.506 103.822v-1.358h2.296v-2.324h1.4v2.324h2.296v1.358H5.202v2.408h-1.4v-2.408H1.506ZM20.506 103.822v-1.358h2.296v-2.324h1.4v2.324h2.296v1.358h-2.296v2.408h-1.4v-2.408h-2.296ZM39.506 103.822v-1.358h2.296v-2.324h1.4v2.324h2.296v1.358h-2.296v2.408h-1.4v-2.408h-2.296ZM58.506 103.822v-1.358h2.296v-2.324h1.4v2.324h2.296v1.358h-2.296v2.408h-1.4v-2.408h-2.296ZM77.506 103.822v-1.358h2.296v-2.324h1.4v2.324h2.296v1.358h-2.296v2.408h-1.4v-2.408h-2.296ZM96.506 103.822v-1.358h2.296v-2.324h1.4v2.324h2.296v1.358h-2.296v2.408h-1.4v-2.408h-2.296ZM115.506 103.822v-1.358h2.296v-2.324h1.4v2.324h2.296v1.358h-2.296v2.408h-1.4v-2.408h-2.296ZM134.506 103.822v-1.358h2.296v-2.324h1.4v2.324h2.296v1.358h-2.296v2.408h-1.4v-2.408h-2.296ZM153.506 103.822v-1.358h2.296v-2.324h1.4v2.324h2.296v1.358h-2.296v2.408h-1.4v-2.408h-2.296ZM172.506 103.822v-1.358h2.296v-2.324h1.4v2.324h2.296v1.358h-2.296v2.408h-1.4v-2.408h-2.296ZM1.506 122.822v-1.358h2.296v-2.324h1.4v2.324h2.296v1.358H5.202v2.408h-1.4v-2.408H1.506ZM20.506 122.822v-1.358h2.296v-2.324h1.4v2.324h2.296v1.358h-2.296v2.408h-1.4v-2.408h-2.296ZM39.506 122.822v-1.358h2.296v-2.324h1.4v2.324h2.296v1.358h-2.296v2.408h-1.4v-2.408h-2.296ZM58.506 122.822v-1.358h2.296v-2.324h1.4v2.324h2.296v1.358h-2.296v2.408h-1.4v-2.408h-2.296ZM77.506 122.822v-1.358h2.296v-2.324h1.4v2.324h2.296v1.358h-2.296v2.408h-1.4v-2.408h-2.296ZM96.506 122.822v-1.358h2.296v-2.324h1.4v2.324h2.296v1.358h-2.296v2.408h-1.4v-2.408h-2.296ZM115.506 122.822v-1.358h2.296v-2.324h1.4v2.324h2.296v1.358h-2.296v2.408h-1.4v-2.408h-2.296ZM134.506 122.822v-1.358h2.296v-2.324h1.4v2.324h2.296v1.358h-2.296v2.408h-1.4v-2.408h-2.296ZM153.506 122.822v-1.358h2.296v-2.324h1.4v2.324h2.296v1.358h-2.296v2.408h-1.4v-2.408h-2.296ZM172.506 122.822v-1.358h2.296v-2.324h1.4v2.324h2.296v1.358h-2.296v2.408h-1.4v-2.408h-2.296ZM1.506 141.822v-1.358h2.296v-2.324h1.4v2.324h2.296v1.358H5.202v2.408h-1.4v-2.408H1.506ZM20.506 141.822v-1.358h2.296v-2.324h1.4v2.324h2.296v1.358h-2.296v2.408h-1.4v-2.408h-2.296ZM39.506 141.822v-1.358h2.296v-2.324h1.4v2.324h2.296v1.358h-2.296v2.408h-1.4v-2.408h-2.296ZM58.506 141.822v-1.358h2.296v-2.324h1.4v2.324h2.296v1.358h-2.296v2.408h-1.4v-2.408h-2.296ZM77.506 141.822v-1.358h2.296v-2.324h1.4v2.324h2.296v1.358h-2.296v2.408h-1.4v-2.408h-2.296ZM96.506 141.822v-1.358h2.296v-2.324h1.4v2.324h2.296v1.358h-2.296v2.408h-1.4v-2.408h-2.296ZM115.506 141.822v-1.358h2.296v-2.324h1.4v2.324h2.296v1.358h-2.296v2.408h-1.4v-2.408h-2.296ZM134.506 141.822v-1.358h2.296v-2.324h1.4v2.324h2.296v1.358h-2.296v2.408h-1.4v-2.408h-2.296ZM153.506 141.822v-1.358h2.296v-2.324h1.4v2.324h2.296v1.358h-2.296v2.408h-1.4v-2.408h-2.296ZM172.506 141.822v-1.358h2.296v-2.324h1.4v2.324h2.296v1.358h-2.296v2.408h-1.4v-2.408h-2.296ZM1.506 160.822v-1.358h2.296v-2.324h1.4v2.324h2.296v1.358H5.202v2.408h-1.4v-2.408H1.506ZM20.506 160.822v-1.358h2.296v-2.324h1.4v2.324h2.296v1.358h-2.296v2.408h-1.4v-2.408h-2.296ZM39.506 160.822v-1.358h2.296v-2.324h1.4v2.324h2.296v1.358h-2.296v2.408h-1.4v-2.408h-2.296ZM58.506 160.822v-1.358h2.296v-2.324h1.4v2.324h2.296v1.358h-2.296v2.408h-1.4v-2.408h-2.296ZM77.506 160.822v-1.358h2.296v-2.324h1.4v2.324h2.296v1.358h-2.296v2.408h-1.4v-2.408h-2.296ZM96.506 160.822v-1.358h2.296v-2.324h1.4v2.324h2.296v1.358h-2.296v2.408h-1.4v-2.408h-2.296ZM115.506 160.822v-1.358h2.296v-2.324h1.4v2.324h2.296v1.358h-2.296v2.408h-1.4v-2.408h-2.296ZM134.506 160.822v-1.358h2.296v-2.324h1.4v2.324h2.296v1.358h-2.296v2.408h-1.4v-2.408h-2.296ZM153.506 160.822v-1.358h2.296v-2.324h1.4v2.324h2.296v1.358h-2.296v2.408h-1.4v-2.408h-2.296ZM172.506 160.822v-1.358h2.296v-2.324h1.4v2.324h2.296v1.358h-2.296v2.408h-1.4v-2.408h-2.296ZM1.506 179.822v-1.358h2.296v-2.324h1.4v2.324h2.296v1.358H5.202v2.408h-1.4v-2.408H1.506ZM20.506 179.822v-1.358h2.296v-2.324h1.4v2.324h2.296v1.358h-2.296v2.408h-1.4v-2.408h-2.296ZM39.506 179.822v-1.358h2.296v-2.324h1.4v2.324h2.296v1.358h-2.296v2.408h-1.4v-2.408h-2.296ZM58.506 179.822v-1.358h2.296v-2.324h1.4v2.324h2.296v1.358h-2.296v2.408h-1.4v-2.408h-2.296ZM77.506 179.822v-1.358h2.296v-2.324h1.4v2.324h2.296v1.358h-2.296v2.408h-1.4v-2.408h-2.296ZM96.506 179.822v-1.358h2.296v-2.324h1.4v2.324h2.296v1.358h-2.296v2.408h-1.4v-2.408h-2.296ZM115.506 179.822v-1.358h2.296v-2.324h1.4v2.324h2.296v1.358h-2.296v2.408h-1.4v-2.408h-2.296ZM134.506 179.822v-1.358h2.296v-2.324h1.4v2.324h2.296v1.358h-2.296v2.408h-1.4v-2.408h-2.296ZM153.506 179.822v-1.358h2.296v-2.324h1.4v2.324h2.296v1.358h-2.296v2.408h-1.4v-2.408h-2.296ZM172.506 179.822v-1.358h2.296v-2.324h1.4v2.324h2.296v1.358h-2.296v2.408h-1.4v-2.408h-2.296Z"/></svg>
